img/index/design-process-ui-library.svg

<svg width="248" height="261" viewBox="0 0 248 261" fill="none" xmlns="http://www.w3.org/2000/svg">
<path fill-rule="evenodd" clip-rule="evenodd" d="M126.969 5.02251C146.57 5.65821 162.741 18.9156 177.94 31.2219C192.332 42.8748 205.261 56.2467 211.628 73.5683C218.163 91.3463 218.529 110.565 213.848 128.91C208.909 148.267 200.743 167.735 184.573 179.605C168.337 191.523 147.117 193.993 126.969 192.685C107.807 191.442 89.7631 184.152 74.5882 172.467C59.7793 161.065 51.2198 144.685 42.9462 127.989C33.1956 108.313 15.9873 88.1289 22.3938 67.1428C28.803 46.1479 54.5599 39.0983 73.5203 27.8354C90.5795 17.7018 107.101 4.37815 126.969 5.02251Z" fill="#EBFAEA"/>
<g filter="url(#filter0_d_4075_24317)">
<path d="M145.967 99.6236C124.467 108.785 160.246 122.439 160.246 108.433C160.246 103.023 155.073 97.7955 150.117 96.0753C144.217 94.0281 129.211 92.6421 125.342 99.6236C120.919 107.607 128.138 121.386 132.787 128.01C139.347 137.357 153.474 136.175 162.443 131.558C170.2 127.565 177.859 113.9 175.379 104.885C171.746 91.6821 160.781 84.3746 147.432 82.0045C132.921 79.4283 116.646 78.5385 108.623 93.0165C105.289 99.0328 102.379 104.571 101.179 111.492C99.7949 119.468 104.613 126.938 107.525 134.005C115.522 153.418 135.072 154.479 153.656 154.683C162.504 154.781 175.924 156.859 182.213 148.933C188.563 140.93 191 129.373 191 119.445C191 104.116 188.649 86.6259 175.623 76.7432C154.007 60.3431 121.796 60.8004 96.541 61.0818C69.8539 61.3791 57 91.9114 57 115.04" stroke="black" stroke-width="2" stroke-linecap="round" stroke-linejoin="round"/>
</g>
<defs>
<filter id="filter0_d_4075_24317" x="0" y="53" width="248" height="207.999" filterUnits="userSpaceOnUse" color-interpolation-filters="sRGB">
<feFlood flood-opacity="0" result="BackgroundImageFix"/>
<feColorMatrix in="SourceAlpha" type="matrix" values="0 0 0 0 0 0 0 0 0 0 0 0 0 0 0 0 0 0 127 0" result="hardAlpha"/>
<feOffset dy="49"/>
<feGaussianBlur stdDeviation="28"/>
<feColorMatrix type="matrix" values="0 0 0 0 0 0 0 0 0 0 0 0 0 0 0 0 0 0 0.06 0"/>
<feBlend mode="normal" in2="BackgroundImageFix" result="effect1_dropShadow_4075_24317"/>
<feBlend mode="normal" in="SourceGraphic" in2="effect1_dropShadow_4075_24317" result="shape"/>
</filter>
</defs>
</svg>

<?xml version="1.0" encoding="UTF-8"?>
<svg id="Layer_1" xmlns="http://www.w3.org/2000/svg" version="1.1" viewBox="0 0 248 200.13">
  <!-- Generator: Adobe Illustrator 29.5.1, SVG Export Plug-In . SVG Version: 2.1.0 Build 141)  -->
  <defs>
    <style>
      .st0 {
        fill: #ebfaea;
        fill-rule: evenodd;
      }

      .st1 {
        fill: none;
        stroke: #000;
        stroke-linecap: round;
        stroke-linejoin: round;
        stroke-width: 2px;
      }
    </style>
  </defs>
  <path class="st0" d="M126.97,5.02c19.6.64,35.77,13.89,50.97,26.2,14.39,11.65,27.32,25.02,33.69,42.35,6.53,17.78,6.9,37,2.22,55.34-4.94,19.36-13.11,38.82-29.28,50.69-16.24,11.92-37.46,14.39-57.6,13.08-19.16-1.24-37.21-8.53-52.38-20.22-14.81-11.4-23.37-27.78-31.64-44.48-9.75-19.68-26.96-39.86-20.55-60.85,6.41-20.99,32.17-28.04,51.13-39.31,17.06-10.13,33.58-23.46,53.45-22.81Z"/>
  <path class="st1" d="M145.97,99.62c-21.5,9.16,14.28,22.82,14.28,8.81,0-5.41-5.17-10.64-10.13-12.36-5.9-2.05-20.91-3.43-24.78,3.55-4.42,7.98,2.8,21.76,7.44,28.39,6.56,9.35,20.69,8.17,29.66,3.55,7.76-3.99,15.42-17.66,12.94-26.67-3.63-13.2-14.6-20.51-27.95-22.88-14.51-2.58-30.79-3.47-38.81,11.01-3.33,6.02-6.24,11.55-7.44,18.48-1.38,7.98,3.43,15.45,6.35,22.51,8,19.41,27.55,20.47,46.13,20.68,8.85.1,22.27,2.18,28.56-5.75,6.35-8,8.79-19.56,8.79-29.49,0-15.33-2.35-32.82-15.38-42.7-21.62-16.4-53.83-15.94-79.08-15.66-26.69.3-39.54,30.83-39.54,53.96"/>
</svg>
